manual/professional/deepin-terminal/zh_CN/icon/F2.svg

<?xml version="1.0" encoding="iso-8859-1"?>
<!-- Generator: Adobe Illustrator 18.0.0, SVG Export Plug-In . SVG Version: 6.00 Build 0)  -->
<!DOCTYPE svg PUBLIC "-//W3C//DTD SVG 1.1//EN" "http://www.w3.org/Graphics/SVG/1.1/DTD/svg11.dtd">
<svg version="1.1" id="&#x56FE;&#x5C42;_1" xmlns="http://www.w3.org/2000/svg" xmlns:xlink="http://www.w3.org/1999/xlink" x="0px"
	 y="0px" viewBox="0 0 20 20" enable-background="new 0 0 20 20" xml:space="preserve">
<g>
	<path opacity="0.1" fill="#FFFFFF" d="M15.7,19.5H4.3c-2.09,0-3.8-1.71-3.8-3.8V4.3c0-2.09,1.71-3.8,3.8-3.8h11.4
		c2.09,0,3.8,1.71,3.8,3.8v11.4C19.5,17.79,17.79,19.5,15.7,19.5z"/>
	<path fill="none" stroke="#CBCBCB" stroke-miterlimit="10" d="M15.5,19.5h-11c-2.209,0-4-1.791-4-4v-11c0-2.209,1.791-4,4-4h11
		c2.209,0,4,1.791,4,4v11C19.5,17.709,17.709,19.5,15.5,19.5z"/>
	<g>
		<path d="M10,6H6v3h3v1H6v4H5V5h5V6z"/>
	</g>
	<path d="M16,13.974h-5v-0.955l2.379-2.557c0.656-0.706,1.094-1.265,1.317-1.677c0.221-0.412,0.333-0.838,0.333-1.279
		c0-0.501-0.131-0.885-0.391-1.153c-0.26-0.267-0.847-0.401-1.34-0.401C12.567,5.952,12,6.286,11,6.954V5.821
		c1-0.535,1.605-0.803,2.46-0.803c0.737,0,1.423,0.214,1.85,0.643c0.426,0.429,0.691,1.006,0.691,1.731
		c0,0.547-0.159,1.061-0.383,1.609c-0.43,1.05-3.274,3.972-3.274,3.972l3.656,0V13.974z"/>
</g>
</svg>

<?xml version="1.0" encoding="UTF-8"?>
<svg width="20px" height="20px" viewBox="0 0 20 20" version="1.1" xmlns="http://www.w3.org/2000/svg" xmlns:xlink="http://www.w3.org/1999/xlink">
    <!-- Generator: Sketch 64 (93537) - https://sketch.com -->
    <title>F2</title>
    <desc>Created with Sketch.</desc>
    <g id="页面-1" stroke="none" stroke-width="1" fill="none" fill-rule="evenodd">
        <g id="F2">
            <path d="M15.7,19.5 L4.3,19.5 C2.21,19.5 0.5,17.79 0.5,15.7 L0.5,4.3 C0.5,2.21 2.21,0.5 4.3,0.5 L15.7,0.5 C17.79,0.5 19.5,2.21 19.5,4.3 L19.5,15.7 C19.5,17.79 17.79,19.5 15.7,19.5 Z" id="路径" fill="#FFFFFF" fill-rule="nonzero"></path>
            <path d="M15.5,19.5 L4.5,19.5 C2.291,19.5 0.5,17.709 0.5,15.5 L0.5,4.5 C0.5,2.291 2.291,0.5 4.5,0.5 L15.5,0.5 C17.709,0.5 19.5,2.291 19.5,4.5 L19.5,15.5 C19.5,17.709 17.709,19.5 15.5,19.5 Z" id="路径" stroke="#CBCBCB"></path>
            <polygon id="路径" fill="#000000" fill-rule="nonzero" points="10 6 6 6 6 9 9 9 9 10 6 10 6 14 5 14 5 5 10 5"></polygon>
            <path d="M16,13.974 L11,13.974 L11,13.019 L13.379,10.462 C14.035,9.756 14.473,9.197 14.696,8.785 C14.917,8.373 15.029,7.947 15.029,7.506 C15.029,7.005 14.898,6.621 14.638,6.353 C14.378,6.086 13.791,5.952 13.298,5.952 C12.567,5.952 12,6.286 11,6.954 L11,5.821 C12,5.286 12.605,5.018 13.46,5.018 C14.197,5.018 14.883,5.232 15.31,5.661 C15.736,6.09 16.001,6.667 16.001,7.392 C16.001,7.939 15.842,8.453 15.618,9.001 C15.188,10.051 12.344,12.973 12.344,12.973 L16,12.973 L16,13.974 Z" id="路径" fill="#000000" fill-rule="nonzero"></path>
        </g>
    </g>
</svg>
